icon-themes/breeze_svg/cmd/32/showmultiplepages.svg

<svg viewBox="0 0 32 32" xmlns="http://www.w3.org/2000/svg"><path d="m5 2v13h10v-8-1l-1-1.3339844-1.25-1.6660156-.75-1h-1zm12 0v13h10v-8-1l-1-1.3339844-1.25-1.6660156-.75-1h-1zm-11 1h5v4h3v7h-8zm12 0h5v4h3v7h-8zm-13 14v13h10v-8-1l-1-1.333984-1.25-1.666016-.75-1h-1zm12 0v13h10v-8-1l-1-1.333984-1.25-1.666016-.75-1h-1zm-11 1h5v4h3v7h-8zm12 0h5v4h3v7h-8z" fill="#4d4d4d"/></svg>

<svg xmlns="http://www.w3.org/2000/svg" viewBox="0 0 32 32">
 <path 
     style="fill:#4d4d4d" 
     d="M 5 2 L 5 15 L 15 15 L 15 7 L 15 6 L 14 4.6660156 L 12.75 3 L 12 2 L 11 2 L 5 2 z M 17 2 L 17 15 L 27 15 L 27 7 L 27 6 L 26 4.6660156 L 24.75 3 L 24 2 L 23 2 L 17 2 z M 6 3 L 11 3 L 11 7 L 14 7 L 14 14 L 6 14 L 6 3 z M 18 3 L 23 3 L 23 7 L 26 7 L 26 14 L 18 14 L 18 3 z M 5 17 L 5 30 L 15 30 L 15 22 L 15 21 L 14 19.666016 L 12.75 18 L 12 17 L 11 17 L 5 17 z M 17 17 L 17 30 L 27 30 L 27 22 L 27 21 L 26 19.666016 L 24.75 18 L 24 17 L 23 17 L 17 17 z M 6 18 L 11 18 L 11 22 L 14 22 L 14 29 L 6 29 L 6 18 z M 18 18 L 23 18 L 23 22 L 26 22 L 26 29 L 18 29 L 18 18 z "
     />
</svg>
